X: 3
T: The Curragh Races
R: reel
M: 4/4
L: 1/8
K: Edor
BE FE | BE FE | D2 FA | DE FA |
BE FE | BE FE | D2 FA | FE E2 :|
ef/e/ dB | ef/e/ dB | AF dF | AB/c/ d2 |
ef/e/ dB | ef/e/ dB | AF dF | FE E2 :|


Tune 1760	Setting 1760

